X: 39872
T: This Is My Love, Do You Like Her?
R: jig
M: 6/8
K: Adorian
M:12/8
c2 B|ABc AGE ccB c2 d|efg edB g2 g gfg|
eaf g/a/ge d/e/dB G2 A|BeB dBG A2 B c/d/cB|
A2 c AGE c2 B c2 d|efg edB g2 g gfg|
eaf g/a/ge dBA G2 A|B/A/Be dBG ABA/B/ ABd||
e2 a age dgg gfg|eab agf- fgg gfg|
eaf g/a/ge d2 B G/A/GA|B2 e dBG ABA ABd|
e2 a age dgg gfg|eaa age g2 g gfg|
eaf g/a/ge d2 B G/A/GA|BAB dBG A3||

